packages/icons/raw/imported/SportEsportGeneric.svg

<svg width="32" height="32" viewBox="0 0 32 32" fill="none" xmlns="http://www.w3.org/2000/svg">
<path d="M20.4377 22.6165L20.0174 22.8873L20.0179 22.8882L20.4377 22.6165ZM20.3303 22.45L20.7507 22.1791L20.7501 22.1783L20.3303 22.45ZM11.6696 22.4504L11.2499 22.1787L11.2497 22.1791L11.6696 22.4504ZM11.5623 22.6165L11.9823 22.8879L11.9823 22.8879L11.5623 22.6165ZM6.64384 22.7223L7.0523 22.434L7.05198 22.4335L6.64384 22.7223ZM6.58658 22.6414L6.17799 22.9296L6.17844 22.9302L6.58658 22.6414ZM8.13756 9.67L8.59392 9.8743L8.59392 9.87429L8.13756 9.67ZM12.9916 8.95072L12.614 9.27851L12.6141 9.27864L12.9916 8.95072ZM19.0084 8.95072L19.3859 9.27864L19.386 9.27851L19.0084 8.95072ZM23.8629 9.67L24.3193 9.46573L24.3193 9.46571L23.8629 9.67ZM25.4134 22.6419L25.8216 22.9307L25.822 22.9301L25.4134 22.6419ZM25.3562 22.7228L24.948 22.434L24.9478 22.4343L25.3562 22.7228ZM11.5117 12.5963C11.5117 12.3202 11.2879 12.0963 11.0117 12.0963C10.7356 12.0963 10.5117 12.3202 10.5117 12.5963H11.5117ZM10.5117 16.5411C10.5117 16.8173 10.7356 17.0411 11.0117 17.0411C11.2879 17.0411 11.5117 16.8173 11.5117 16.5411H10.5117ZM9.12126 14.0689C8.84512 14.0689 8.62126 14.2927 8.62126 14.5689C8.62126 14.845 8.84512 15.0689 9.12126 15.0689V14.0689ZM12.9022 15.0689C13.1784 15.0689 13.4022 14.845 13.4022 14.5689C13.4022 14.2927 13.1784 14.0689 12.9022 14.0689V15.0689ZM22.9328 23.5C22.1066 23.5 21.3295 23.0742 20.8574 22.3448L20.0179 22.8882C20.6676 23.8918 21.7552 24.5 22.9328 24.5V23.5ZM20.858 22.3457L20.7507 22.1791L19.91 22.7208L20.0174 22.8873L20.858 22.3457ZM20.7501 22.1783C19.7893 20.6937 18.1822 19.7978 16.4475 19.7978V20.7978C17.831 20.7978 19.1275 21.5116 19.9106 22.7216L20.7501 22.1783ZM16.4475 19.7978H15.5525V20.7978H16.4475V19.7978ZM15.5525 19.7978C13.8177 19.7978 12.2111 20.6938 11.2499 22.1787L12.0894 22.7221C12.873 21.5115 14.1691 20.7978 15.5525 20.7978V19.7978ZM11.2497 22.1791L11.1424 22.3451L11.9823 22.8879L12.0896 22.7218L11.2497 22.1791ZM11.1424 22.3451C10.6714 23.074 9.89361 23.5 9.06725 23.5V24.5C10.2445 24.5 11.3334 23.892 11.9823 22.8879L11.1424 22.3451ZM9.06725 23.5C8.28234 23.5 7.52666 23.1059 7.0523 22.434L6.23538 23.0107C6.89089 23.9392 7.94679 24.5 9.06725 24.5V23.5ZM7.05198 22.4335L6.99472 22.3526L6.17844 22.9302L6.2357 23.0112L7.05198 22.4335ZM6.99517 22.3532C6.67215 21.8953 6.5 21.3522 6.5 20.779H5.5C5.5 21.556 5.73453 22.3009 6.17799 22.9296L6.99517 22.3532ZM6.5 20.779V19.7145H5.5V20.779H6.5ZM6.5 19.7145C6.5 16.3362 7.22476 12.9327 8.59392 9.8743L7.6812 9.4657C6.25408 12.6536 5.5 16.1964 5.5 19.7145H6.5ZM8.59392 9.87429C8.97115 9.03161 9.78464 8.5 10.6516 8.5V7.5C9.37242 7.5 8.21202 8.27993 7.6812 9.46571L8.59392 9.87429ZM10.6516 8.5H10.9356V7.5H10.6516V8.5ZM10.9356 8.5C11.5688 8.5 12.1817 8.78055 12.614 9.27851L13.3692 8.62293C12.7519 7.91191 11.866 7.5 10.9356 7.5V8.5ZM12.6141 9.27864C12.999 9.7217 13.5533 9.98089 14.1377 9.98089V8.98089C13.851 8.98089 13.5694 8.85339 13.369 8.62281L12.6141 9.27864ZM14.1377 9.98089H17.8628V8.98089H14.1377V9.98089ZM17.8628 9.98089C18.4473 9.98089 19.0011 9.72158 19.3859 9.27864L18.631 8.62281C18.4305 8.85351 18.1493 8.98089 17.8628 8.98089V9.98089ZM19.386 9.27851C19.8183 8.78058 20.4311 8.5 21.0648 8.5V7.5C20.134 7.5 19.2482 7.91188 18.6308 8.62293L19.386 9.27851ZM21.0648 8.5H21.3484V7.5H21.0648V8.5ZM21.3484 8.5C22.2159 8.5 23.0293 9.03165 23.4065 9.87429L24.3193 9.46571C23.7884 8.27989 22.628 7.5 21.3484 7.5V8.5ZM23.4065 9.87427C24.7757 12.9331 25.5 16.3366 25.5 19.7145H26.5C26.5 16.1969 25.7464 12.6541 24.3193 9.46573L23.4065 9.87427ZM25.5 19.7145V20.779H26.5V19.7145H25.5ZM25.5 20.779C25.5 21.3524 25.3282 21.8954 25.0049 22.3536L25.822 22.9301C26.266 22.3008 26.5 21.5558 26.5 20.779H25.5ZM25.0053 22.3531L24.948 22.434L25.7643 23.0116L25.8216 22.9307L25.0053 22.3531ZM24.9478 22.4343C24.4734 23.1058 23.7177 23.5 22.9328 23.5V24.5C24.0532 24.5 25.109 23.9392 25.7645 23.0113L24.9478 22.4343ZM16.0272 17.7326C16.0272 17.7534 16.0195 17.7676 16.0117 17.7757C16.0044 17.7834 16.0004 17.7828 15.9998 17.7828V18.7828C16.587 18.7828 17.0272 18.2924 17.0272 17.7326H16.0272ZM15.9998 17.7828C15.9996 17.7828 15.9957 17.7835 15.9883 17.7758C15.9805 17.7677 15.9728 17.7535 15.9728 17.7326H14.9728C14.9728 18.2922 15.4128 18.7828 15.9998 18.7828V17.7828ZM15.9728 17.7326C15.9728 17.7118 15.9805 17.6975 15.9883 17.6895C15.9957 17.6818 15.9996 17.6824 15.9998 17.6824V16.6824C15.4128 16.6824 14.9728 17.173 14.9728 17.7326H15.9728ZM15.9998 17.6824C16.0004 17.6824 16.0044 17.6819 16.0117 17.6895C16.0195 17.6976 16.0272 17.7118 16.0272 17.7326H17.0272C17.0272 17.1728 16.587 16.6824 15.9998 16.6824V17.6824ZM21.0939 12.8463C21.0939 12.8476 21.0938 12.8442 21.0983 12.8394C21.1006 12.837 21.1047 12.8336 21.1113 12.8307C21.1184 12.8276 21.1265 12.8258 21.1343 12.8258V13.8258C21.6841 13.8258 22.0939 13.3671 22.0939 12.8463H21.0939ZM21.1343 12.8258C21.1422 12.8258 21.1505 12.8277 21.1575 12.8308C21.1642 12.8337 21.1683 12.8371 21.1706 12.8395C21.1751 12.8442 21.1749 12.8476 21.1749 12.8463H20.1749C20.1749 13.3669 20.5846 13.8258 21.1343 13.8258V12.8258ZM21.1749 12.8463C21.1749 12.845 21.1751 12.8484 21.1706 12.8531C21.1683 12.8555 21.1642 12.8589 21.1575 12.8618C21.1505 12.8649 21.1422 12.8667 21.1343 12.8667V11.8667C20.5846 11.8667 20.1749 12.3257 20.1749 12.8463H21.1749ZM21.1343 12.8667C21.1265 12.8667 21.1184 12.865 21.1113 12.8619C21.1047 12.8589 21.1006 12.8555 21.0983 12.8532C21.0938 12.8484 21.0939 12.845 21.0939 12.8463H22.0939C22.0939 12.3255 21.6841 11.8667 21.1343 11.8667V12.8667ZM21.0939 16.291C21.0939 16.2924 21.0938 16.2889 21.0983 16.2842C21.1006 16.2818 21.1047 16.2784 21.1113 16.2755C21.1184 16.2724 21.1265 16.2706 21.1343 16.2706V17.2706C21.6841 17.2706 22.0939 16.8118 22.0939 16.291H21.0939ZM21.1343 16.2706C21.1422 16.2706 21.1505 16.2724 21.1575 16.2755C21.1642 16.2785 21.1683 16.2819 21.1706 16.2842C21.1751 16.2889 21.1749 16.2924 21.1749 16.291H20.1749C20.1749 16.8116 20.5846 17.2706 21.1343 17.2706V16.2706ZM21.1749 16.291C21.1749 16.2897 21.1751 16.2931 21.1706 16.2978C21.1683 16.3002 21.1642 16.3036 21.1575 16.3066C21.1505 16.3097 21.1422 16.3115 21.1343 16.3115V15.3115C20.5846 15.3115 20.1749 15.7704 20.1749 16.291H21.1749ZM21.1343 16.3115C21.1265 16.3115 21.1184 16.3097 21.1113 16.3066C21.1047 16.3037 21.1006 16.3003 21.0983 16.2979C21.0938 16.2932 21.0939 16.2897 21.0939 16.291H22.0939C22.0939 15.7702 21.6841 15.3115 21.1343 15.3115V16.3115ZM19.3662 14.5688C19.3662 14.5701 19.366 14.5667 19.3706 14.5619C19.3729 14.5595 19.377 14.5561 19.3836 14.5532C19.3906 14.5501 19.3988 14.5484 19.4065 14.5484V15.5484C19.9563 15.5484 20.3662 15.0896 20.3662 14.5688H19.3662ZM19.4065 14.5484C19.4145 14.5484 19.4227 14.5502 19.4298 14.5533C19.4364 14.5562 19.4405 14.5596 19.4428 14.562C19.4473 14.5667 19.4472 14.5701 19.4472 14.5688H18.4472C18.4472 15.0894 18.8568 15.5484 19.4065 15.5484V14.5484ZM19.4472 14.5688C19.4472 14.5675 19.4473 14.5709 19.4428 14.5756C19.4405 14.578 19.4364 14.5814 19.4298 14.5843C19.4227 14.5874 19.4145 14.5892 19.4065 14.5892V13.5892C18.8568 13.5892 18.4472 14.0482 18.4472 14.5688H19.4472ZM19.4065 14.5892C19.3988 14.5892 19.3906 14.5875 19.3836 14.5844C19.377 14.5814 19.3729 14.578 19.3706 14.5757C19.366 14.5709 19.3662 14.5675 19.3662 14.5688H20.3662C20.3662 14.048 19.9563 13.5892 19.4065 13.5892V14.5892ZM22.7577 14.5688C22.7577 14.5701 22.7576 14.5667 22.7621 14.5619C22.7644 14.5595 22.7685 14.5561 22.7751 14.5532C22.7821 14.5501 22.7903 14.5484 22.7981 14.5484V15.5484C23.3479 15.5484 23.7577 15.0896 23.7577 14.5688H22.7577ZM22.7981 14.5484C22.806 14.5484 22.8142 14.5502 22.8213 14.5533C22.8279 14.5562 22.8321 14.5596 22.8343 14.562C22.8388 14.5667 22.8387 14.5701 22.8387 14.5688H21.8387C21.8387 15.0894 22.2484 15.5484 22.7981 15.5484V14.5484ZM22.8387 14.5688C22.8387 14.5675 22.8388 14.5709 22.8343 14.5756C22.8321 14.578 22.8279 14.5814 22.8213 14.5843C22.8142 14.5874 22.806 14.5892 22.7981 14.5892V13.5892C22.2484 13.5892 21.8387 14.0482 21.8387 14.5688H22.8387ZM22.7981 14.5892C22.7903 14.5892 22.7821 14.5875 22.7751 14.5844C22.7685 14.5814 22.7644 14.578 22.7621 14.5757C22.7576 14.5709 22.7577 14.5675 22.7577 14.5688H23.7577C23.7577 14.048 23.3479 13.5892 22.7981 13.5892V14.5892ZM10.5117 12.5963V14.5689H11.5117V12.5963H10.5117ZM10.5117 14.5689V16.5411H11.5117V14.5689H10.5117ZM9.12126 15.0689H11.0117V14.0689H9.12126V15.0689ZM11.0117 15.0689H12.9022V14.0689H11.0117V15.0689Z" fill="black"/>
</svg>

<svg width="32" height="32" fill="none" xmlns="http://www.w3.org/2000/svg"><path d="m20.438 22.616-.42.271v.001l.42-.272Zm-.108-.166.42-.27v-.002l-.42.272Zm-8.66 0-.42-.271.42.271Zm-.108.166.42.272-.42-.272Zm-4.918.106.408-.288-.408.288Zm-.057-.08-.409.288.409-.289ZM8.137 9.67l.457.204-.456-.204Zm4.855-.72-.378.329.378-.328Zm6.016 0 .378.329-.378-.328Zm4.855.72.456-.204-.456.204Zm1.55 12.972.409.289-.409-.29Zm-.057.08-.408-.288.408.289ZM11.512 12.597a.5.5 0 1 0-1 0h1Zm-1 3.945a.5.5 0 1 0 1 0h-1Zm-1.39-2.472a.5.5 0 1 0 0 1v-1Zm3.78 1a.5.5 0 1 0 0-1v1Zm10.03 8.431c-.825 0-1.602-.426-2.075-1.155l-.84.543c.65 1.004 1.738 1.612 2.916 1.612v-1Zm-2.074-1.154-.107-.167-.841.542.107.166.841-.541Zm-.108-.168c-.96-1.484-2.568-2.38-4.302-2.38v1c1.383 0 2.68.714 3.463 1.924l.84-.544Zm-4.302-2.38h-.896v1h.896v-1Zm-.896 0c-1.734 0-3.34.896-4.302 2.38l.84.544c.783-1.21 2.08-1.924 3.463-1.924v-1Zm-4.302 2.381-.108.166.84.543.108-.166-.84-.543Zm-.108.166A2.473 2.473 0 0 1 9.067 23.5v1c1.178 0 2.266-.608 2.915-1.612l-.84-.543ZM9.067 23.5c-.785 0-1.54-.394-2.015-1.066l-.817.577A3.482 3.482 0 0 0 9.067 24.5v-1Zm-2.015-1.067-.057-.08-.817.577.058.081.816-.578Zm-.057-.08A2.713 2.713 0 0 1 6.5 20.78h-1c0 .777.235 1.522.678 2.15l.817-.576ZM6.5 20.78v-1.064h-1v1.064h1Zm0-1.064c0-3.379.725-6.782 2.094-9.84l-.913-.41A25.263 25.263 0 0 0 5.5 19.716h1Zm2.094-9.84C8.97 9.031 9.784 8.5 10.652 8.5v-1c-1.28 0-2.44.78-2.97 1.966l.912.408ZM10.652 8.5h.284v-1h-.284v1Zm.284 0c.633 0 1.246.28 1.678.779l.755-.656A3.228 3.228 0 0 0 10.936 7.5v1Zm1.678.779c.385.443.94.702 1.524.702v-1c-.287 0-.569-.128-.769-.358l-.755.656Zm1.524.702h3.725v-1h-3.725v1Zm3.725 0c.584 0 1.138-.26 1.523-.702l-.755-.656c-.2.23-.482.358-.768.358v1Zm1.523-.702a2.228 2.228 0 0 1 1.679-.779v-1c-.931 0-1.817.412-2.434 1.123l.755.656Zm1.679-.779h.283v-1h-.283v1Zm.283 0c.868 0 1.681.532 2.059 1.374l.912-.408C23.79 8.28 22.628 7.5 21.35 7.5v1Zm2.059 1.374a24.265 24.265 0 0 1 2.093 9.84h1c0-3.517-.754-7.06-2.18-10.248l-.913.408Zm2.093 9.84v1.065h1v-1.064h-1Zm0 1.065c0 .573-.172 1.116-.495 1.575l.817.576c.444-.63.678-1.374.678-2.151h-1Zm-.495 1.574-.057.081.816.578.058-.081-.817-.578Zm-.057.081a2.483 2.483 0 0 1-2.015 1.066v1c1.12 0 2.176-.56 2.832-1.489l-.817-.577Zm-8.92-4.701c0 .02-.008.035-.016.043-.008.007-.012.007-.012.007v1c.587 0 1.027-.49 1.027-1.05h-1Zm-.028.05s-.004 0-.012-.007a.061.061 0 0 1-.015-.043h-1c0 .56.44 1.05 1.027 1.05v-1Zm-.027-.05a.06.06 0 0 1 .015-.044c.008-.007.012-.007.012-.007v-1c-.587 0-1.027.491-1.027 1.05h1Zm.027-.05s.004-.001.012.006a.061.061 0 0 1 .015.044h1c0-.56-.44-1.05-1.027-1.05v1Zm5.094-4.837.004-.007a.04.04 0 0 1 .013-.008.059.059 0 0 1 .023-.005v1c.55 0 .96-.459.96-.98h-1Zm.04-.02c.008 0 .017.002.023.005a.04.04 0 0 1 .014.008l.004.007h-1c0 .52.41.98.96.98v-1Zm.04.02c0-.001.001.002-.003.007a.04.04 0 0 1-.014.009.059.059 0 0 1-.023.005v-1c-.55 0-.96.459-.96.98h1Zm-.04.02a.059.059 0 0 1-.023-.004.044.044 0 0 1-.013-.009l-.004-.007h1c0-.52-.41-.98-.96-.98v1Zm-.04 3.425.004-.007a.04.04 0 0 1 .013-.008.059.059 0 0 1 .023-.005v1c.55 0 .96-.46.96-.98h-1Zm.04-.02c.008 0 .017.001.023.005l.014.008.004.007h-1c0 .52.41.98.96.98v-1Zm.04.02c0-.001.001.002-.003.007a.041.041 0 0 1-.014.009.059.059 0 0 1-.023.005v-1c-.55 0-.96.458-.96.979h1Zm-.04.02a.059.059 0 0 1-.023-.004.04.04 0 0 1-.013-.01c-.004-.004-.004-.007-.004-.006h1c0-.52-.41-.98-.96-.98v1Zm-1.768-1.742c0 .001 0-.002.005-.007a.04.04 0 0 1 .013-.009.058.058 0 0 1 .023-.005v1c.55 0 .96-.458.96-.98h-1Zm.04-.02a.06.06 0 0 1 .024.004.04.04 0 0 1 .013.009l.004.007h-1c0 .52.41.98.96.98v-1Zm.041.02-.004.007a.04.04 0 0 1-.013.008.06.06 0 0 1-.023.005v-1c-.55 0-.96.46-.96.98h1Zm-.04.02a.058.058 0 0 1-.023-.005.044.044 0 0 1-.013-.008c-.005-.005-.005-.008-.005-.007h1c0-.521-.41-.98-.96-.98v1Zm3.35-.02c0 .001 0-.002.005-.007a.04.04 0 0 1 .013-.009.058.058 0 0 1 .023-.005v1c.55 0 .96-.458.96-.98h-1Zm.041-.02a.06.06 0 0 1 .023.004.04.04 0 0 1 .013.009c.005.005.005.008.005.007h-1c0 .52.41.98.96.98v-1Zm.04.02-.004.007a.04.04 0 0 1-.013.008.06.06 0 0 1-.023.005v-1c-.55 0-.96.46-.96.98h1Zm-.04.02a.058.058 0 0 1-.023-.005.044.044 0 0 1-.013-.008l-.004-.007h1c0-.521-.41-.98-.96-.98v1Zm-12.286-1.993v1.973h1v-1.973h-1Zm0 1.973v1.972h1V14.57h-1Zm-1.39.5h1.89v-1h-1.89v1Zm1.89 0h1.89v-1h-1.89v1Z" fill="#000"/></svg>
